X:291
T: HERR BACCHUS IST EIN BRAVER MANN
N: B0343
O: Europa, Mitteleuropa, Deutschland
R: Trink - Lied
M: 4/4
L: 1/8
K: Eb
B2 | e2e2e2e2 | d3cB2
c2 | B2A2G2F2 | G4E2
G2 | F2G2A2F2 | B2G2F2
B2 | c2B2ABcd | e4E2

